packages/tokens/icons/legal/size24Px.svg

<svg viewBox="0 0 24 24" fill="none" xmlns="http://www.w3.org/2000/svg" width="1em" height="1em"><path d="M7.24642 18.8419C7.31447 18.6377 7.50554 18.5 7.72076 18.5H16.2792C16.4945 18.5 16.6855 18.6377 16.7536 18.8419L17.0869 19.8419C17.1948 20.1657 16.9539 20.5 16.6126 20.5H7.38743C7.04615 20.5 6.80516 20.1657 6.91308 19.8419L7.24642 18.8419Z" stroke="currentColor"/><path d="M12 6.5L12 18" stroke="currentColor"/><path d="M3.5 8.5H5.02593C5.3221 8.5 5.59868 8.64802 5.76297 8.89445V8.89445C6.11359 9.42038 6.88641 9.42038 7.23703 8.89445V8.89445C7.40132 8.64802 7.6779 8.5 7.97407 8.5H12" stroke="currentColor" stroke-linecap="round"/><path d="M20.5 8.5H18.9741C18.6779 8.5 18.4013 8.64802 18.237 8.89445V8.89445C17.8864 9.42038 17.1136 9.42038 16.763 8.89445V8.89445C16.5987 8.64802 16.3221 8.5 16.0259 8.5L12 8.5" stroke="currentColor" stroke-linecap="round"/><path d="M13.5 5C13.5 5.82843 12.8284 6.5 12 6.5C11.1716 6.5 10.5 5.82843 10.5 5C10.5 4.17157 11.1716 3.5 12 3.5C12.8284 3.5 13.5 4.17157 13.5 5Z" stroke="currentColor"/><path d="M9.34661 14.7897C8.96134 15.7502 7.86174 16.5 6.5 16.5C5.13826 16.5 4.03866 15.7502 3.65339 14.7897C3.6372 14.7493 3.63829 14.7231 3.64179 14.7056C3.64579 14.6857 3.65714 14.6584 3.68475 14.6272C3.74358 14.5608 3.85831 14.5 4 14.5L9 14.5C9.14169 14.5 9.25642 14.5608 9.31525 14.6272C9.34286 14.6584 9.35421 14.6857 9.35821 14.7056C9.36171 14.7231 9.3628 14.7493 9.34661 14.7897Z" stroke="currentColor"/><path d="M9 15L6.5 10L4 15" stroke="currentColor" stroke-linejoin="round"/><path d="M14.6534 14.7897C15.0387 15.7502 16.1383 16.5 17.5 16.5C18.8617 16.5 19.9613 15.7502 20.3466 14.7897C20.3628 14.7493 20.3617 14.7231 20.3582 14.7056C20.3542 14.6857 20.3429 14.6584 20.3152 14.6272C20.2564 14.5608 20.1417 14.5 20 14.5L15 14.5C14.8583 14.5 14.7436 14.5608 14.6848 14.6272C14.6571 14.6584 14.6458 14.6857 14.6418 14.7056C14.6383 14.7231 14.6372 14.7493 14.6534 14.7897Z" stroke="currentColor"/><path d="M15 15L17.5 10L20 15" stroke="currentColor" stroke-linejoin="round"/></svg>

<svg xmlns="http://www.w3.org/2000/svg" fill="none" viewBox="0 0 24 24" width="1em" height="1em"><path stroke="currentColor" d="M7.246 18.842a.5.5 0 0 1 .475-.342h8.558a.5.5 0 0 1 .475.342l.333 1a.5.5 0 0 1-.474.658H7.387a.5.5 0 0 1-.474-.658l.333-1ZM12 6.5V18"/><path stroke="currentColor" stroke-linecap="round" d="M3.5 8.5h1.526c.296 0 .573.148.737.394v0a.886.886 0 0 0 1.474 0v0a.886.886 0 0 1 .737-.394H12m8.5 0h-1.526a.886.886 0 0 0-.737.394v0a.886.886 0 0 1-1.474 0v0a.886.886 0 0 0-.737-.394H12"/><path stroke="currentColor" d="M13.5 5a1.5 1.5 0 1 1-3 0 1.5 1.5 0 0 1 3 0Zm-4.153 9.79c-.386.96-1.485 1.71-2.847 1.71-1.362 0-2.461-.75-2.847-1.71a.143.143 0 0 1-.011-.084.172.172 0 0 1 .043-.079A.428.428 0 0 1 4 14.5h5c.142 0 .256.06.315.127a.172.172 0 0 1 .043.079.143.143 0 0 1-.011.084Z"/><path stroke="currentColor" stroke-linejoin="round" d="m9 15-2.5-5L4 15"/><path stroke="currentColor" d="M14.653 14.79c.386.96 1.485 1.71 2.847 1.71 1.362 0 2.461-.75 2.847-1.71a.143.143 0 0 0 .011-.084.171.171 0 0 0-.043-.079A.428.428 0 0 0 20 14.5h-5a.428.428 0 0 0-.315.127.171.171 0 0 0-.043.079.143.143 0 0 0 .011.084Z"/><path stroke="currentColor" stroke-linejoin="round" d="m15 15 2.5-5 2.5 5"/></svg>
